X:70
%%NRChange 2018-02-05
T:Savitaipaleen polkka
T:Ievan polkka
R:polka
D:Kevin Burke: Up Close
O:South Karelia
M:2/4
L:1/8
K:Bm
P:A
|: "Bm"B>B Bc | dB Bd | "F#m"cA Ac | "Bm"d/c/B/A/ BF |
B>B Bc | dB Bd | "F#m"ef/e/ dc | "Bm"B2 B2 :|
P:B
|: "D"fd df | "A"ec cd | "F#m"ef/e/ dc | "Bm"Bc de |
"D"fd df | "A"ec cd | "F#7"ef/e/ dc | "Bm"B2 B2 :|

